icons/device/video-fill.svg

<svg width="32" height="32" viewBox="0 0 32 32" fill="none" xmlns="http://www.w3.org/2000/svg">
<path fill-rule="evenodd" clip-rule="evenodd" d="M4 6.00003C2.89543 6.00003 2 6.89546 2 8.00003V24C2 25.1046 2.89543 26 4 26H21C22.1046 26 23 25.1046 23 24V19.9432L28.0237 23.5314C28.851 24.1224 30.0002 23.5309 30.0002 22.5142L30.0001 9.48581C30 8.4691 28.8508 7.87771 28.0235 8.46865L23 12.0568V8.00003C23 6.89546 22.1046 6.00003 21 6.00003H4Z" fill="black"/>
</svg>

<svg width="32" height="32" viewBox="0 0 32 32" xmlns="http://www.w3.org/2000/svg">
    <path fill-rule="evenodd" d="M4 6a2 2 0 00-2 2v16a2 2 0 002 2h17a2 2 0 002-2v-4.057l5.024 3.588A1.25 1.25 0 0030 22.514V9.486a1.25 1.25 0 00-1.977-1.017L23 12.057V8a2 2 0 00-2-2H4z"/>
</svg>
